X:31
T:Saint Anne's Reel
M:C|
Z:Originally French Canadian, now firmly adopted in Ireland. Madison.
E:7
R:reel
K:D
de|fedf edcB|A2 FA DAFA|B2GB EBGB|A2 FA DAFA|fedf edcB|A2 FA DAFA|BGBd cAce|d2 dc d2:|
ag|fdfa fdfa|aggf~g3f|edcB Acea|baa^g a3=g|fdfa fdfa|aggf~g3f|edcBAcec|dedc d2:|
<end>
<start>
